X: 4707
T: Boys Of 25, The
R: reel
M: 4/4
K: Dmixolydian
AB|:cAAF G2 AB|cAAG AddB|cAAF GAdg|fde^c AddB|
cAAF G2 AB|cAAG AddB|cAAF GAdg|1 fde^c AddB:|2 fde^c Adde||
|:fdfg a2 ag|~f3g afde|fdfg ~a3g|fde^c Adde|
fdfg a2 ag|~f3g afde|fgaf g2 ag|1 fde^c Adde:|2 fde^c AddB||

